X: 19
T: Princess Charlotte Augusta's Minuet
%R: minuet, waltz
B: Straight & Skillern "Minuets for the year 1777", p.19
F: http://www.vwml.org/browse/browse-collections-dance-tune-books/browse-straight1777
Z: 2014 John Chambers <jc:trillian.mit.edu>
M: 3/4
L: 1/8
K: D
% - - - - - - - - - - - - - - - - - - - - - - - - - - - - -
% Voice 1 formatted for a US-letter/A4 page size.
V: 1
|:\
d2 A2 A2 | A2 F2 F2 |\
F2 D2 {de}f2 | e2 dcBA |\
fd B2 A2 | ^GA E2 D2 |\
CE A2 ^G2 | {G2}A6 :|\
|:\
AB A2 G2 | FAd4 |\
B=c B2 A2 | ^GB e4 |
A2 g2 g2 | fgaf d2 |\
AG F2 TE2 | HD6 :|\
|:\
[K:D][M:3/4] "Min:2.o"\
D2 F2 F2 | F2 A2 A2 |\
A2 d2 c2 | {c2}d4 e2 |\
fafd A2 | eaec A2 |\
fdcBA^G | {G2}A6 :|
|:\
A2 B2 =c2 | (3(B=cd) G2 F2 |\
E2 c2 d2 | (3(cde) A2 G2 |\
d2 e2 f2 | Tg4 f2 |\
dfegfa | g4 f2 |\
egfedc | "D.C. 1st Min:"{c2}d6 :|
% - - - - - - - - - - - - - - - - - - - - - - - - - - - - -
% Voice 2 preserves the original staff breaks.
V: 2 clef=bass middle=d
|: z6 | d'2 a2 a2 | f2 d2 z2 | [a6A6] |\
[d6D6] | [d6D6] | E4 e2 | a2 e2 A2 :|\
|: d2 a2 c2 | d2 f2 d2 | e2 b2 B2 |
e2 ^g2 e2 | c6 | d2 e2 f2 | g2 a2 A2 | H[d2d6] A2 D2 :|\
|:\
[K:D][M:3/4] "Min:2.o"\
[d6D6] | [d6D6] |\
df a2 A2 | d2 D2 c2 | [d'6d6] | [c'6c6] |
d2 e2 E2 | A2 e2 a2 :|
|:\
f2 e2 d2 | [g6G6] | ^g2 f2 e2 | [a6A6] |\
f2 e2 d2 | e2 c2 d2 | f4 d2 | e2 c2 d2 |\
g2 a2 A2 | "D.C. 1st Min:" d2 A2 D2 :|
% - - - - - - - - - - - - - - - - - - - - - - - - - - - - -

%%sep 1 1 500
%%sep 1 1 500
